symbols/web/picture_in_picture/materialsymbolsoutlined/picture_in_picture_wght700gradN25_20px.svg

<svg xmlns="http://www.w3.org/2000/svg" height="20" width="20"><path d="M8.938 11.062h6.479V6.229H8.938Zm-5.167 6.126q-1.104 0-1.854-.75t-.75-1.855V5.417q0-1.105.75-1.855t1.854-.75h12.458q1.104 0 1.854.75t.75 1.855v9.166q0 1.105-.75 1.855t-1.854.75Zm0-2.605V5.417v9.166Zm0 0h12.458V5.417H3.771v9.166Zm6.812-5.166V7.875h3.188v1.542Z"/></svg>

<svg xmlns="http://www.w3.org/2000/svg" height="20" width="20"><path d="M8.938 11.062H15.417V6.229H8.938ZM3.771 17.188Q2.667 17.188 1.917 16.438Q1.167 15.688 1.167 14.583V5.417Q1.167 4.312 1.917 3.562Q2.667 2.812 3.771 2.812H16.229Q17.333 2.812 18.083 3.562Q18.833 4.312 18.833 5.417V14.583Q18.833 15.688 18.083 16.438Q17.333 17.188 16.229 17.188ZM3.771 14.583Q3.771 14.583 3.771 14.583Q3.771 14.583 3.771 14.583V5.417Q3.771 5.417 3.771 5.417Q3.771 5.417 3.771 5.417Q3.771 5.417 3.771 5.417Q3.771 5.417 3.771 5.417V14.583Q3.771 14.583 3.771 14.583Q3.771 14.583 3.771 14.583ZM3.771 14.583H16.229Q16.229 14.583 16.229 14.583Q16.229 14.583 16.229 14.583V5.417Q16.229 5.417 16.229 5.417Q16.229 5.417 16.229 5.417H3.771Q3.771 5.417 3.771 5.417Q3.771 5.417 3.771 5.417V14.583Q3.771 14.583 3.771 14.583Q3.771 14.583 3.771 14.583ZM10.583 9.417V7.875H13.771V9.417Z"/></svg>
